X: 041174
T: Dha Phreacain
T: Two Crows
R: jig
S: "Ace and Deuce" (C.McCarthy, A.McCormack, E.O Donoghue)
M: 6/8
Q: 350
L: 1/8
K: G
D|GFG DB,G,|GFG B,CD|CB,C EDC|DB,D G2 D|
GFG DB,G,|GFG B,CD|CB,C EDC|DB,D G2 :|
A|BGG dGG|g2f gdc|BGG BGe|=f2e fdc|
BGG dGG|g2f gdc|g2f gdc|BGG G2 :|
